package/contents/images/group-light.svg

<svg xmlns="http://www.w3.org/2000/svg" viewBox="0 0 24 24">
  <defs id="defs3051">
    <style type="text/css" id="current-color-scheme">
      .ColorScheme-Text {
        color:#f2f2f2;
      }
      </style>
  </defs>
 <path style="fill:#f2f2f2;fill-opacity:1;stroke:none" 
     d="M 12 4 L 11.292969 4.7070312 L 4 12 L 4.7070312 12.707031 L 5 12.414062 L 5 20 L 6 20 L 11 20 L 14 20 L 19 20 L 19 19 L 19 12.414062 L 19.292969 12.707031 L 20 12 L 17 9 L 17 6 L 14 6 L 12.707031 4.7070312 L 12 4 z M 12 5.4140625 L 18 11.414062 L 18 19 L 14 19 L 14 14 L 11 14 L 10 14 L 10 19 L 6 19 L 6 11.414062 L 12 5.4140625 z "
     class="ColorScheme-Text"
     />
</svg>

<?xml version="1.0" encoding="UTF-8" standalone="no"?>
<svg xmlns="http://www.w3.org/2000/svg" viewBox="0 0 24 24">
<defs>
<style id="current-color-scheme" type="text/css">.ColorScheme-Text {
        color:#f2f2f2;
      }</style>
</defs>
<path fill="#f2f2f2" d="m12 4l-0.7 0.71-7.3 7.29 0.71 0.7 0.29-0.3v7.6h1 5 3 5v-1-6.6l0.3 0.3 0.7-0.7-3-3v-3h-3l-1.3-1.29-0.7-0.71zm0 1.41l6 5.99v7.6h-4v-5h-3-1v5h-4v-7.6l6-5.99z" class="ColorScheme-Text"/>
</svg>
